resources/svg/link-remove.svg

<svg width="15" height="15" viewBox="0 0 15 15" fill="none" xmlns="http://www.w3.org/2000/svg">
<path fill-rule="evenodd" clip-rule="evenodd" d="M4 3V0H5V3H4ZM9.31802 0.974873C9.94222 0.350672 10.7888 0 11.6716 0C13.5098 0 15 1.49019 15 3.32843C15 4.21118 14.6493 5.05778 14.0251 5.68198L10.8536 8.85355L10.1464 8.14645L13.318 4.97487C13.7547 4.53821 14 3.94596 14 3.32843C14 2.04247 12.9575 1 11.6716 1C11.054 1 10.4618 1.24532 10.0251 1.68198L6.85355 4.85355L6.14645 4.14645L9.31802 0.974873ZM0 4H3V5H0V4ZM10.8536 4.85355L4.85355 10.8536L4.14645 10.1464L10.1464 4.14645L10.8536 4.85355ZM4.85355 6.85355L1.68198 10.0251C1.24532 10.4618 1 11.054 1 11.6716C1 12.9575 2.04247 14 3.32843 14C3.94596 14 4.53821 13.7547 4.97487 13.318L8.14645 10.1464L8.85355 10.8536L5.68198 14.0251C5.05778 14.6493 4.21118 15 3.32843 15C1.49019 15 0 13.5098 0 11.6716C0 10.7888 0.350673 9.94222 0.974874 9.31802L4.14645 6.14645L4.85355 6.85355ZM15 11H12V10H15V11ZM10 15V12H11V15H10Z" fill="black"/>
</svg>

<svg viewBox="0 0 15 15" fill="none" xmlns="http://www.w3.org/2000/svg" fill="currentColor"><path fill-rule="evenodd" clip-rule="evenodd" d="M4 3V0h1v3H4zM9.318.975a3.328 3.328 0 114.707 4.707l-3.171 3.172-.708-.708 3.172-3.171a2.328 2.328 0 10-3.293-3.293L6.854 4.854l-.708-.708L9.318.975zM0 4h3v1H0V4zm10.854.854l-6 6-.708-.708 6-6 .708.708zm-6 2l-3.172 3.171a2.329 2.329 0 003.293 3.293l3.171-3.172.708.708-3.172 3.171A3.328 3.328 0 11.975 9.318l3.171-3.172.708.708zM15 11h-3v-1h3v1zm-5 4v-3h1v3h-1z" fill="currentColor"/></svg>
